assets/features/channel/southeast-asia/pay-maya.svg

<svg width="80" height="80" viewBox="0 0 80 80" fill="none" xmlns="http://www.w3.org/2000/svg">
<rect width="80" height="80" rx="8" fill="#2FF19E"/>
<path d="M48.8065 26.0273C45.7931 26.0273 42.7275 27.2947 40.7719 29.3034L41.8817 31.5222L41.4126 31.897C39.3392 28.3235 35.527 26.0273 31.4693 26.0273C25.1281 26.0273 20.0009 31.5743 20.0009 38.0727V52.0728C19.9954 52.1923 20.0149 52.3116 20.058 52.423C20.1012 52.5345 20.1671 52.6358 20.2516 52.7203C20.3361 52.805 20.4373 52.871 20.5487 52.9144C20.6601 52.9577 20.7794 52.9774 20.8989 52.9722H25.498C25.721 52.9722 25.9349 52.8836 26.0925 52.726C26.2502 52.5684 26.3388 52.3546 26.3388 52.1317V37.9667C26.3388 34.7445 28.2945 32.1038 31.624 32.1038C34.7417 32.1038 36.9614 34.4268 36.9614 37.8609V49.4843C36.9536 49.5994 36.9695 49.7149 37.0082 49.8235C37.0469 49.9322 37.1076 50.0317 37.1865 50.1159C37.2653 50.2001 37.3607 50.2671 37.4666 50.3129C37.5725 50.3587 37.6868 50.3821 37.8022 50.3819H42.1979C42.3133 50.3821 42.4274 50.3587 42.5334 50.3129C42.6393 50.2671 42.7347 50.2001 42.8135 50.1159C42.8924 50.0317 42.9531 49.9322 42.9919 49.8235C43.0306 49.7149 43.0465 49.5994 43.0387 49.4843V37.8609C43.0387 34.4268 45.3643 32.1038 48.482 32.1038C51.8114 32.1038 53.6612 34.7445 53.6612 37.9667V52.1267C53.6717 52.3561 53.7715 52.5725 53.9392 52.7295C54.107 52.8865 54.3294 52.9717 54.5592 52.9671H59.0995C59.219 52.9726 59.3385 52.9531 59.4501 52.9098C59.5618 52.8666 59.6632 52.8006 59.7478 52.716C59.8325 52.6313 59.8986 52.53 59.9419 52.4184C59.9851 52.3068 60.0046 52.1874 59.9991 52.0679V38.0727C59.9991 31.5743 55.0839 26.0273 48.7947 26.0273" fill="white"/>
</svg>

<svg xmlns="http://www.w3.org/2000/svg" width="80" height="80" fill="none" viewBox="0 0 80 80"><rect width="80" height="80" fill="#2ff19e" rx="8"/><path fill="#fff" d="M48.807 26.027c-3.014 0-6.08 1.268-8.035 3.276l1.11 2.22-.47.374c-2.073-3.573-5.885-5.87-9.943-5.87-6.34 0-11.468 5.547-11.468 12.046v14a.86.86 0 0 0 .898.9h4.599a.84.84 0 0 0 .84-.841V37.967c0-3.222 1.956-5.863 5.286-5.863 3.118 0 5.337 2.323 5.337 5.757v11.623a.84.84 0 0 0 .841.898h4.396a.84.84 0 0 0 .84-.898V37.861c0-3.434 2.326-5.757 5.444-5.757 3.33 0 5.18 2.64 5.18 5.863v14.16a.88.88 0 0 0 .897.84h4.54a.86.86 0 0 0 .9-.9V38.074c0-6.499-4.915-12.046-11.204-12.046"/></svg>
